public/d10.svg

<svg class="die-svg" width="80" height="78" viewBox="-8 0 96 78" >
<path class="face" d="M40.2453 76L1 49.5364V32.9353C1 31.6642 1.60409 30.4688 2.6274 29.7149L40.2453 2L77.3919 29.7142C78.4039 30.4692 79 31.6576 79 32.9202V49.5364L40.2453 76Z" />
<path class="edges" d="M40.2453 76L1 49.5364M40.2453 76L79 49.5364M40.2453 76V61.7881M1 49.5364V32.9353C1 31.6642 1.60409 30.4688 2.6274 29.7149L40.2453 2M1 49.5364H14.7358M40.2453 2L77.3919 29.7142C78.4039 30.4692 79 31.6576 79 32.9202V49.5364M40.2453 2L14.7358 49.5364M40.2453 2L65.2642 49.5364M79 49.5364H65.2642M14.7358 49.5364L40.2453 61.7881M65.2642 49.5364L40.2453 61.7881" />
</svg>

<svg width="80" height="78" class="die-svg" viewBox="-8 0 96 78"><path d="M40.245 76 1 49.536v-16.6a4 4 0 0 1 1.627-3.221L40.245 2l37.147 27.714A4 4 0 0 1 79 32.92v16.616L40.245 76Z" class="face"/><path d="M40.245 76 1 49.536M40.245 76 79 49.536M40.245 76V61.788M1 49.536v-16.6a4 4 0 0 1 1.627-3.221L40.245 2M1 49.536h13.736M40.246 2l37.146 27.714A4 4 0 0 1 79 32.92v16.616M40.245 2l-25.51 47.536M40.246 2l25.02 47.536m13.735 0H65.264m-50.528 0 25.51 12.252m25.018-12.252L40.245 61.788" class="edges"/></svg>
